X: 1
T: Sligo Maid, The
M: 4/4
L: 1/8
R: reel
K: Ador
|: A2BA Bdef | gedB AGEF | G2BG DGBG | DEGA BddB |
A2BA Bdef | gedB AGEG | AB3 AEGE | DEGA B2AB :|
|: eaag a2ga | ^baggf gedg | eggf g2ge | dega bgag |
eaag a2ga | ^baggf gedg | egg2 edBc | dBgB BAA2 :|
